svgs/sharp-regular/file-magnifying-glass.svg

<svg xmlns="http://www.w3.org/2000/svg" viewBox="0 0 384 512"><!--! Font Awesome Pro 6.6.0 by @fontawesome - https://fontawesome.com License - https://fontawesome.com/license (Commercial License) Copyright 2024 Fonticons, Inc. --><path d="M48 464L48 48l176 0 0 112 112 0 0 304L48 464zM256 0L48 0 0 0 0 48 0 464l0 48 48 0 288 0 48 0 0-48 0-336L256 0zm16 304c0-53-43-96-96-96s-96 43-96 96s43 96 96 96c17.8 0 34.4-4.8 48.7-13.2L263 425.1l17 17 33.9-33.9-17-17-38.3-38.3c8.5-14.3 13.3-31 13.3-48.9zm-96-48a48 48 0 1 1 0 96 48 48 0 1 1 0-96z"/></svg>

<svg xmlns="http://www.w3.org/2000/svg" viewBox="0 0 384 512"><!--! Font Awesome Pro 6.4.0 by @fontawesome - https://fontawesome.com License - https://fontawesome.com/license (Commercial License) Copyright 2023 Fonticons, Inc. --><path d="M48 464V48H224V160H336V464H48zM256 0H48 0V48 464v48H48 336h48V464 128L256 0zm16 304c0-53-43-96-96-96s-96 43-96 96s43 96 96 96c17.8 0 34.4-4.8 48.7-13.2L263 425.1l17 17 33.9-33.9-17-17-38.3-38.3c8.5-14.3 13.3-31 13.3-48.9zm-96-48a48 48 0 1 1 0 96 48 48 0 1 1 0-96z"/></svg>
